tools/download-figma-icons/icons/outlined-large/gas-meter.svg

<svg width="64" height="64" viewBox="0 0 64 64" fill="none" xmlns="http://www.w3.org/2000/svg">
<path fill-rule="evenodd" clip-rule="evenodd" d="M5.77899 44.3729C10.431 54.1909 20.434 60.9999 31.9999 60.9999C43.5659 60.9999 53.5689 54.1909 58.2219 44.3729H5.77899ZM60.9999 31.9999C60.9999 16.009 47.9899 2.99999 31.9999 2.99999C16.01 2.99999 2.99999 16.009 2.99999 31.9999C2.99999 35.2799 3.55599 38.4309 4.56299 41.3729H59.4369C60.4449 38.4309 60.9999 35.2799 60.9999 31.9999ZM0 31.9999C0 14.327 14.327 0 31.9999 0C49.6729 0 63.9999 14.327 63.9999 31.9999C63.9999 49.6729 49.6729 63.9999 31.9999 63.9999C14.327 63.9999 0 49.6729 0 31.9999ZM35.1956 32.1997C35.1956 30.9927 33.6346 26.2407 32.0566 21.8848C30.4796 26.2418 28.9186 30.9927 28.9186 32.1997C28.9186 33.9307 30.3266 35.3377 32.0566 35.3377C33.7866 35.3377 35.1956 33.9307 35.1956 32.1997ZM38.1956 32.1997C38.1956 35.5847 35.4416 38.3377 32.0566 38.3377C28.6716 38.3377 25.9186 35.5847 25.9186 32.1997C25.9186 29.4967 29.8656 19.1088 30.6576 17.0538L32.0566 13.4188L33.4556 17.0538C34.2476 19.1088 38.1956 29.4957 38.1956 32.1997ZM30.5 11H33.5V5.99999H30.5V11ZM23.4356 7.40439L25.3496 12.0244L22.5786 13.1724L20.6636 8.55338L23.4356 7.40439ZM18.211 16.0903L14.676 12.5543L12.555 14.6753L16.09 18.2113L18.211 16.0903ZM8.55388 20.6641L13.1729 22.5781L12.0249 25.3491L7.40489 23.4361L8.55388 20.6641ZM6.00009 33.4999H11.0001V30.4999H6.00009V33.4999ZM40.5649 7.40519L43.3359 8.55318L41.4219 13.1732L38.6499 12.0242L40.5649 7.40519ZM51.4453 14.6758L49.3243 12.5548L45.7893 16.0908L47.9103 18.2118L51.4453 14.6758ZM56.5945 23.4356L51.9755 25.3496L50.8275 22.5786L55.4465 20.6646L56.5945 23.4356ZM53 33.4999H58V30.4999H53V33.4999ZM33.5 53.9079H30.5V48.9079H33.5V53.9079ZM21.5071 53.9079H24.5071V48.9079H21.5071V53.9079ZM42.493 53.9079H39.493V48.9079H42.493V53.9079Z" fill="black"/>
</svg>

<svg xmlns="http://www.w3.org/2000/svg" width="64" height="64" fill="none" viewBox="0 0 64 64"><path fill="currentColor" fill-rule="evenodd" d="M5.779 44.373C10.431 54.19 20.434 61 31.999 61c11.567 0 21.57-6.81 26.223-16.627zM60.999 32C61 16.009 47.99 3 32 3S3 16.009 3 32c0 3.28.556 6.43 1.563 9.373h54.874A28.9 28.9 0 0 0 61 32M0 32C0 14.327 14.327 0 32 0s32 14.327 32 32-14.327 32-32 32S0 49.673 0 32m35.196.2c0-1.207-1.561-5.96-3.14-10.315-1.576 4.357-3.137 9.108-3.137 10.315a3.14 3.14 0 0 0 3.138 3.138 3.14 3.14 0 0 0 3.139-3.138m3 0a6.145 6.145 0 0 1-6.14 6.138A6.144 6.144 0 0 1 25.92 32.2c0-2.703 3.947-13.091 4.739-15.146l1.399-3.635 1.399 3.635c.792 2.055 4.74 12.442 4.74 15.146M30.5 11h3V6h-3zm-7.064-3.596 1.914 4.62-2.771 1.148-1.915-4.619zM18.21 16.09l-3.535-3.536-2.121 2.121 3.535 3.536zm-9.657 4.574 4.619 1.914-1.148 2.771-4.62-1.913zM6 33.5h5v-3H6zM40.565 7.405l2.77 1.148-1.913 4.62-2.772-1.149zm10.88 7.27-2.12-2.12-3.536 3.536 2.121 2.12zm5.15 8.76-4.62 1.915-1.148-2.771 4.62-1.914zM53 33.5h5v-3h-5zM33.5 53.908h-3v-5h3zm-11.993 0h3v-5h-3zm20.986 0h-3v-5h3z" clip-rule="evenodd"/></svg>
